school-project/src/images/SVG/twitter.svg

<svg width="18" height="18" viewBox="0 0 18 18" fill="none" xmlns="http://www.w3.org/2000/svg">
<path fill-rule="evenodd" clip-rule="evenodd" d="M0 0H18V18H0V0ZM14.05 6.857V6.514C14.479 6.171 14.907 5.743 15.252 5.227C14.738 5.485 14.309 5.57 13.795 5.656C14.309 5.314 14.738 4.885 14.909 4.285C14.48 4.542 13.966 4.799 13.366 4.885C12.937 4.371 12.252 4.114 11.566 4.114C10.194 4.114 9.08 5.229 9.08 6.6C9.08 6.74154 9.10609 6.8573 9.12953 6.96131C9.14864 7.04615 9.166 7.12318 9.166 7.2C7.109 7.115 5.309 6.086 4.109 4.629C3.852 4.972 3.766 5.4 3.766 5.829C3.766 6.686 4.194 7.372 4.88 7.972C4.452 7.886 4.109 7.8 3.766 7.629C3.766 8.829 4.623 9.772 5.737 10.029C5.48 10.115 5.308 10.115 5.051 10.115C5.01532 10.115 4.96483 10.1002 4.90575 10.0829C4.82244 10.0584 4.72205 10.029 4.622 10.029C4.965 10.972 5.822 11.743 6.936 11.743C6.079 12.343 4.964 12.772 3.85 12.772H3.25C4.364 13.457 5.65 13.886 7.021 13.886C11.564 13.886 14.05 10.114 14.05 6.857Z" fill="black"/>
</svg>

<svg width="18" height="18" fill="none" xmlns="http://www.w3.org/2000/svg"><path fill-rule="evenodd" clip-rule="evenodd" d="M0 0h18v18H0V0zm14.05 6.857v-.343a5.789 5.789 0 001.202-1.287c-.514.258-.943.343-1.457.429.514-.342.943-.771 1.114-1.371-.429.257-.943.514-1.543.6-.429-.514-1.114-.771-1.8-.771A2.488 2.488 0 009.08 6.6c0 .142.026.257.05.361.019.085.036.162.036.239-2.057-.085-3.857-1.114-5.057-2.571-.257.343-.343.771-.343 1.2 0 .857.428 1.543 1.114 2.143-.428-.086-.771-.172-1.114-.343 0 1.2.857 2.143 1.971 2.4-.257.086-.429.086-.686.086-.036 0-.086-.015-.145-.032a1.027 1.027 0 00-.284-.054c.343.943 1.2 1.714 2.314 1.714-.857.6-1.972 1.029-3.086 1.029h-.6c1.114.685 2.4 1.114 3.771 1.114 4.543 0 7.029-3.772 7.029-7.029z" fill="#03DAC4"/></svg>
